images/twitter_logo.svg

<svg fill="none" height="23" viewBox="0 0 25 23" width="25" xmlns="http://www.w3.org/2000/svg"><path clip-rule="evenodd" d="m25 3.0811c-.9186.44293-1.9076.74246-2.9451.87629 1.0595-.68829 1.8724-1.77968 2.2554-3.079786-.9919.637306-2.0881 1.100946-3.2591 1.349496-.9332-1.08183-2.2671-1.757373-3.7433-1.757373-2.8306 0-5.1271 2.493463-5.1271 5.568483 0 .43655.0441.86036.1321 1.26824-4.26278-.23262-8.04131-2.44726-10.57257-5.82022-.44168.82532-.69408 1.78287-.69408 2.80256 0 1.93105.90538 3.63585 2.2818 4.63483-.83935-.02709-1.63174-.28042-2.32435-.69467v.06851c0 2.69904 1.76821 4.95034 4.11604 5.46014-.42995.1306-.88337.196-1.35147.196-.33016 0-.65299-.0335-.96554-.0988.65299 2.2114 2.54592 3.8222 4.79104 3.8653-1.75501 1.4944-3.96784 2.3851-6.36996 2.3851-.41381 0-.823211-.0255-1.22381-.0765 2.27006 1.5773 4.96713 2.4998 7.8623 2.4998 9.4353 0 14.5932-8.4841 14.5932-15.84343 0-.24217-.0044-.48435-.0132-.72175 1.0023-.78548 1.8724-1.76534 2.5577-2.88222z" fill="#000" fill-rule="evenodd"/></svg>

<svg width="25" height="23" viewBox="0 0 25 23" fill="none" xmlns="http://www.w3.org/2000/svg">
<path fill-rule="evenodd" clip-rule="evenodd" d="M25 3.0811C24.0814 3.52403 23.0924 3.82356 22.0549 3.95739C23.1144 3.2691 23.9273 2.17771 24.3103 0.877604C23.3184 1.51491 22.2222 1.97855 21.0512 2.2271C20.118 1.14527 18.7841 0.469727 17.3079 0.469727C14.4773 0.469727 12.1808 2.96319 12.1808 6.03821C12.1808 6.47476 12.2249 6.89857 12.3129 7.30645C8.05012 7.07383 4.27159 4.85919 1.74033 1.48623C1.29865 2.31155 1.04625 3.2691 1.04625 4.28879C1.04625 6.21984 1.95163 7.92464 3.32805 8.92362C2.4887 8.89653 1.69631 8.6432 1.0037 8.22895V8.29746C1.0037 10.9965 2.77191 13.2478 5.11974 13.7576C4.68979 13.8882 4.23637 13.9536 3.76827 13.9536C3.43811 13.9536 3.11528 13.9201 2.80273 13.8548C3.45572 16.0662 5.34865 17.677 7.59377 17.7201C5.83876 19.2145 3.62593 20.1052 1.22381 20.1052C0.81 20.1052 0.400599 20.0797 0 20.0287C2.27006 21.606 4.96713 22.5285 7.8623 22.5285C17.2976 22.5285 22.4555 14.0444 22.4555 6.68507C22.4555 6.4429 22.4511 6.20072 22.4423 5.96332C23.4446 5.17784 24.3147 4.19798 25 3.0811Z" fill="black"/>
</svg>
